**kern	**kern	**dynam
*part1	*part1	*part1
*staff2	*staff1	*
*I"Piano	*	*
*clefF4	*clefG2	*
*k[b-e-]	*k[b-e-]	*
=1	=1	=1
4FF 4F 4G	12r	.
.	12fL 12cc	.
.	12cJ	.
4FF 4D 4F	12r	.
.	12fL 12b-	.
.	12B-J	.
=	=	=
4FF 4C 4F	12r	.
.	12fL 12a	.
.	12AJ	.
4FF 4D 4F	12r	.
.	12fL 12b-	.
.	12B-J	.
=	=	=
4FF 4C 4G	12r	<
.	12b-L 12ee-	.
.	12e-J	.
4FF 4F	12r	.
.	12aL 12ee-	.
.	12e-J	.
=	=	=
4BB- 4F	12r	[ f >
.	12b-L 12ee-	.
.	12e-J	.
4F	12r	.
.	12b-L 12dd	.
.	12dJ	.
=	=	=
(4C 4A	12r	] p
.	12aL	.
.	12fJ	.
4D 4B-	12r	.
.	12b-L	.
.	12fJ	.
=	=	=
4F 4c	12r	.
.	12aL 12cc	.
.	12e-J	.
4B-) 4d	12r	.
.	12b-L 12dd	.
.	12fJ	.
=	=	=
(4d 4f	12r	>
.	12ddL 12ff	.
.	12e-J	]
4F 4e-	12r	.
.	12aL 12cc	.
.	12fJ	.
=	=	=
*-	*-	*-
!!!system-decoration: {(s1,s2)}
